src/assets/icons/public-profile/location.svg

<svg width="48" height="48" viewBox="0 0 48 48" fill="none" xmlns="http://www.w3.org/2000/svg">
<path fill-rule="evenodd" clip-rule="evenodd" d="M45.9496 21.2068C45.9496 9.49012 36.0427 0 23.8319 0C11.6214 0 1.71429 9.49031 1.71429 21.2068C1.71429 21.9302 1.75242 22.6531 1.82842 23.374C2.33394 32.7875 11.2801 42.3295 22.2365 47.0177C22.8204 47.2331 23.3364 47.3287 23.873 47.3287C24.4648 47.3287 24.9439 47.2343 25.4949 47.0104C25.63 46.9526 25.6317 46.9519 25.7094 46.9182L25.7664 46.8931L25.8735 46.8456C36.7488 41.9997 45.349 32.5902 45.8454 23.2499C45.9126 22.6322 45.9496 21.916 45.9496 21.2068ZM23.9214 43.1636L23.8535 43.1929L23.8509 43.1921C14.5281 39.1987 6.50355 30.7478 6.08849 23.0564C6.01959 22.3785 5.98829 21.7948 5.98829 21.2067C5.98829 11.7822 13.9732 4.13335 23.8319 4.13335C33.6909 4.13335 41.6756 11.782 41.6756 21.2067C41.6756 21.7819 41.6453 22.3585 41.5851 22.936C41.1753 30.6005 33.4714 38.9088 24.0864 43.0906C23.9795 43.1381 23.978 43.1388 23.9214 43.1636ZM23.8319 28.0583C27.8982 28.0583 31.1867 24.9076 31.1867 21.0312C31.1867 17.1554 27.8982 14.0052 23.8319 14.0052C19.7655 14.0052 16.4767 17.1556 16.4767 21.0312C16.4767 24.9075 19.7655 28.0583 23.8319 28.0583ZM12.2028 21.0313C12.2028 27.1996 17.4138 32.1918 23.832 32.1918C30.2501 32.1918 35.4608 27.1997 35.4608 21.0313C35.4608 14.8636 30.2501 9.87187 23.832 9.87187C17.4139 9.87187 12.2028 14.8636 12.2028 21.0313Z" fill="#253238"/>
</svg>

<svg width="48" height="48" viewBox="0 0 48 48" fill="none" xmlns="http://www.w3.org/2000/svg"><path fill-rule="evenodd" clip-rule="evenodd" d="M45.95 21.207C45.95 9.49 36.043 0 23.832 0 11.622 0 1.714 9.49 1.714 21.207c0 .723.038 1.446.114 2.167.506 9.414 9.452 18.956 20.408 23.644.584.215 1.1.31 1.637.31.592 0 1.07-.094 1.622-.318l.214-.092.057-.025.108-.047C36.748 42 45.349 32.59 45.844 23.25a19.43 19.43 0 00.105-2.043zM23.92 43.164l-.067.029h-.003C14.528 39.198 6.504 30.747 6.088 23.055c-.068-.678-.1-1.261-.1-1.85 0-9.424 7.985-17.073 17.844-17.073 9.859 0 17.844 7.649 17.844 17.074 0 .575-.03 1.151-.09 1.729-.41 7.665-8.115 15.973-17.5 20.155l-.165.073zm-.09-15.106c4.067 0 7.356-3.15 7.356-7.027 0-3.876-3.289-7.026-7.355-7.026-4.067 0-7.355 3.15-7.355 7.026 0 3.877 3.288 7.027 7.355 7.027zm-11.628-7.027c0 6.169 5.21 11.16 11.629 11.16 6.418 0 11.629-4.991 11.629-11.16 0-6.167-5.21-11.16-11.629-11.16-6.418 0-11.63 4.993-11.63 11.16z" fill="#253238"/></svg>
